X: 796
T: Xin kaihua
L: 1/8
M: 2/4
K: G
e e d B [I:setbarnb 1]| 
e ed2 | 
e e d e | 
c> BA2 | 
d d/ d/ d e | 
A BG2 | 
F ED2 | 
d d A B | 
D> E G A | 
F ED2 |]

@@@ Tune index: 9670
